material/.icons/material/dot-net.svg

<svg xmlns="http://www.w3.org/2000/svg" viewBox="0 0 24 24"><path d="M2 15a1 1 0 011 1 1 1 0 01-1 1 1 1 0 01-1-1 1 1 0 011-1m19 2h-2V9h-2V7h6v2h-2v8M16 7v2h-2v2h2v2h-2v2h2v2h-4V7h4m-5 0v10H9l-3-6v6H4V7h2l3 6V7h2z"/></svg>

<?xml version="1.0" encoding="UTF-8"?><!DOCTYPE svg PUBLIC "-//W3C//DTD SVG 1.1//EN" "http://www.w3.org/Graphics/SVG/1.1/DTD/svg11.dtd"><svg xmlns="http://www.w3.org/2000/svg" xmlns:xlink="http://www.w3.org/1999/xlink" version="1.1" id="mdi-dot-net" width="24" height="24" viewBox="0 0 24 24"><path d="M2,15A1,1 0 0,1 3,16A1,1 0 0,1 2,17A1,1 0 0,1 1,16A1,1 0 0,1 2,15M21,17H19V9H17V7H23V9H21V17M16,7V9H14V11H16V13H14V15H16V17H12V7H16M11,7V17H9L6,11V17H4V7H6L9,13V7H11Z" /></svg>
